korla/actions/symbolic/view-list-symbolic.svg

<svg width="16" height="16" version="1.1" xmlns="http://www.w3.org/2000/svg">
 <path d="m8 10h6v2h-6z" style="fill:#dfdfdf"/>
 <path d="m8 4h6v2h-6z" style="fill:#dfdfdf"/>
 <path d="M 2.25,3 H 5.75 C 5.8885,3 6,3.1115 6,3.25 V 6.75 C 6,6.8885 5.8885,7 5.75,7 H 2.25 C 2.1115,7 2,6.8885 2,6.75 V 3.25 C 2,3.1115 2.1115,3 2.25,3 Z" style="fill:#dfdfdf"/>
 <path d="m2.25 9h3.5c0.1385 0 0.25 0.1115 0.25 0.25v3.5c0 0.139-0.1115 0.25-0.25 0.25h-3.5c-0.1385 0-0.25-0.111-0.25-0.25v-3.5c0-0.1385 0.1115-0.25 0.25-0.25z" style="fill:#dfdfdf"/>
</svg>

<svg xmlns="http://www.w3.org/2000/svg" width="16" height="16" version="1.1">
 <path style="fill:#dfdfdf" d="M 8,10 H 14 V 12 H 8 Z"/>
 <path style="fill:#dfdfdf" d="M 8,4 H 14 V 6 H 8 Z"/>
 <path style="fill:#dfdfdf" d="M 2.25,3 H 5.75 C 5.8885,3 6,3.1115 6,3.25 V 6.75 C 6,6.8885 5.8885,7 5.75,7 H 2.25 C 2.1115,7 2,6.8885 2,6.75 V 3.25 C 2,3.1115 2.1115,3 2.25,3 Z"/>
 <path style="fill:#dfdfdf" d="M 2.25,9 H 5.75 C 5.8885,9 6,9.1115 6,9.25 V 12.75 C 6,12.889 5.8885,13 5.75,13 H 2.25 C 2.1115,13 2,12.889 2,12.75 V 9.25 C 2,9.1115 2.1115,9 2.25,9 Z"/>
</svg>
